Laser Cut SVGs/Side Panels/inner_4cm.svg

<?xml version="1.0" encoding="UTF-8" standalone="no"?>
<!-- Creator: CorelDRAW 2021.5 -->

<svg
   xml:space="preserve"
   width="400mm"
   height="300mm"
   version="1.1"
   style="clip-rule:evenodd;fill-rule:evenodd;image-rendering:optimizeQuality;shape-rendering:geometricPrecision;text-rendering:geometricPrecision"
   viewBox="0 0 40000 30000"
   id="svg46"
   sodipodi:docname="inner_4cm.svg"
   inkscape:version="1.2.1 (9c6d41e410, 2022-07-14)"
   xmlns:inkscape="http://www.inkscape.org/namespaces/inkscape"
   xmlns:sodipodi="http://sodipodi.sourceforge.net/DTD/sodipodi-0.dtd"
   xmlns="http://www.w3.org/2000/svg"
   xmlns:svg="http://www.w3.org/2000/svg"><sodipodi:namedview
   id="namedview352"
   pagecolor="#ffffff"
   bordercolor="#ffffff"
   borderopacity="1"
   inkscape:showpageshadow="0"
   inkscape:pageopacity="1"
   inkscape:pagecheckerboard="1"
   inkscape:deskcolor="#505050"
   inkscape:document-units="mm"
   showgrid="false"
   showguides="false"
   inkscape:zoom="0.88582499"
   inkscape:cx="507.43657"
   inkscape:cy="264.72498"
   inkscape:window-width="1920"
   inkscape:window-height="1001"
   inkscape:window-x="-9"
   inkscape:window-y="-9"
   inkscape:window-maximized="1"
   inkscape:current-layer="Layer_x0020_1"><sodipodi:guide
     position="1680.1077,4619.1746"
     orientation="1,0"
     id="guide1635"
     inkscape:locked="false" /><sodipodi:guide
     position="31888.973,6640.9758"
     orientation="1,0"
     id="guide1637"
     inkscape:locked="false" /><sodipodi:guide
     position="9166.199,14001.392"
     orientation="0,-1"
     id="guide1763"
     inkscape:locked="false" /><sodipodi:guide
     position="29399.421,-5207.4965"
     orientation="0,-1"
     id="guide1765"
     inkscape:locked="false" /></sodipodi:namedview>
 <defs
   id="defs4"><style
     type="text/css"
     id="style2">
   <![CDATA[
    .str0 {stroke:red;stroke-width:7.62;stroke-miterlimit:22.9256}
    .fil0 {fill:none}
   ]]>
  </style></defs>
 <g
   id="Layer_x0020_1"
   inkscape:label="Layer 1"
   inkscape:groupmode="layer"
   style="display:inline">
  <metadata
   id="CorelCorpID_0Corel-Layer" />
  
  
  
  
  
  
  
  
  
  
  
  
  
  
  
  
  
  
  
 <path
   id="rect7"
   style="clip-rule:evenodd;fill:none;fill-rule:evenodd;stroke:#ff0000;stroke-width:7.4804;stroke-miterlimit:22.9256;stroke-dasharray:none;image-rendering:optimizeQuality;shape-rendering:geometricPrecision;text-rendering:geometricPrecision"
   class="fil0 str0"
   d="m 9258.3493,1171.6 v 289.1322 H 1155.039 v 998.2137 h 398.3219 V 4458.5654 H 1155.039 l -0.037,998.1656 H 9258.3639 V 5744.7 H 24254.141 v -287.969 h 8103.256 l 0.04,-998.1656 h -398.27 V 2458.9459 h 398.27 V 1460.7322 H 24254.181 V 1171.6 Z"
   sodipodi:nodetypes="ccccccccccccccccccccc" /><path
   id="rect7-8"
   style="clip-rule:evenodd;display:inline;fill:none;fill-rule:evenodd;stroke:#ff0000;stroke-width:7.4804;stroke-miterlimit:22.9256;stroke-dasharray:none;image-rendering:optimizeQuality;shape-rendering:geometricPrecision;text-rendering:geometricPrecision"
   class="fil0 str0"
   d="m 9258.3501,7340.2999 v 289.132 H 1155.039 v 998.214 h 398.3219 V 10627.265 H 1155.039 l -0.037,998.209 h 8103.362 v 287.926 h 14995.777 v -287.926 h 8103.256 l 0.04,-998.209 h -398.27 V 8627.6459 h 398.27 v -998.214 h -8103.256 v -289.132 z"
   sodipodi:nodetypes="ccccccccccccccccccccc" /><path
   id="rect7-0-8-9-1-1-5"
   style="clip-rule:evenodd;fill:none;fill-rule:evenodd;stroke:#ff0000;stroke-width:7.6;stroke-miterlimit:22.9256;stroke-dasharray:none;image-rendering:optimizeQuality;shape-rendering:geometricPrecision;text-rendering:geometricPrecision"
   class="fil0 str0"
   d="m 21648.435,15250.745 h -397.237 V 14252.07 H 15047.721 V 13962.1 H 8049.9051 v 289.97 H 1846.3179 v 998.675 h -397.236 v 1999.619 h 397.236 l -0.037,998.543 H 8049.8681 V 18539 h 6997.8159 v -290.093 h 6203.477 l 0.04,-998.543 h 397.237 z"
   sodipodi:nodetypes="ccccccccccccccccccccc" /><path
   id="path2053"
   style="fill:none;stroke:#ff1111;stroke-width:7.6;stroke-miterlimit:22.93;stroke-dasharray:none"
   d="m 15806.193,8257.0549 a 169.77109,169.77109 0 0 0 -169.757,169.808 169.77109,169.77109 0 0 0 169.757,169.757 169.77109,169.77109 0 0 0 169.757,-169.757 169.77109,169.77109 0 0 0 -169.757,-169.808 z m 950.019,171.72 A 1198.1029,1198.1029 0 0 0 15558.146,9626.842 1198.1029,1198.1029 0 0 0 16756.212,10824.96 1198.1029,1198.1029 0 0 0 17954.33,9626.842 1198.1029,1198.1029 0 0 0 16756.212,8428.7749 Z m 950.02,2228.3401 a 169.77109,169.77109 0 0 0 -169.757,169.757 169.77109,169.77109 0 0 0 169.757,169.808 169.77109,169.77109 0 0 0 169.757,-169.808 169.77109,169.77109 0 0 0 -169.757,-169.757 z" /><path
   id="path3581-4"
   style="clip-rule:evenodd;fill:none;fill-rule:evenodd;stroke:#ff1111;stroke-width:7.6;stroke-miterlimit:22.93;stroke-dasharray:none;image-rendering:optimizeQuality;shape-rendering:geometricPrecision;text-rendering:geometricPrecision"
   d="m 14896.954,16250.522 a 1196.5757,1196.5758 0 0 0 -1196.566,-1196.568 1196.5757,1196.5758 0 0 0 -1196.568,1196.568 1196.5757,1196.5758 0 0 0 1196.568,1196.568 1196.5757,1196.5758 0 0 0 1196.566,-1196.568 z m -4303.148,0 a 1196.5757,1196.5758 0 0 0 -1196.5669,-1196.568 1196.5757,1196.5758 0 0 0 -1196.62,1196.568 1196.5757,1196.5758 0 0 0 1196.62,1196.568 1196.5757,1196.5758 0 0 0 1196.5669,-1196.568 z" /><path
   id="path559"
   style="fill:none;stroke:#ff1111;stroke-width:7.6;stroke-miterlimit:22.93;stroke-dasharray:none"
   d="m 4402.9351,3310.2557 a 147.84245,147.84244 0 0 0 -147.8462,147.8463 147.84245,147.84244 0 0 0 147.8462,147.8462 147.84245,147.84244 0 0 0 147.8463,-147.8462 147.84245,147.84244 0 0 0 -147.8463,-147.8463 z m 24706.6049,0 a 147.84245,147.84244 0 0 0 -147.846,147.8463 147.84245,147.84244 0 0 0 147.846,147.8462 147.84245,147.84244 0 0 0 147.846,-147.8462 147.84245,147.84244 0 0 0 -147.846,-147.8463 z" /><path
   id="path559-8"
   style="clip-rule:evenodd;display:inline;fill:none;fill-rule:evenodd;stroke:#ff1111;stroke-width:7.6;stroke-miterlimit:22.93;stroke-dasharray:none;image-rendering:optimizeQuality;shape-rendering:geometricPrecision;text-rendering:geometricPrecision"
   d="m 4402.9355,9479.021 a 147.84245,147.84244 0 0 0 -147.8462,147.846 147.84245,147.84244 0 0 0 147.8462,147.846 147.84245,147.84244 0 0 0 147.8463,-147.846 147.84245,147.84244 0 0 0 -147.8463,-147.846 z m 24706.6045,0 a 147.84245,147.84244 0 0 0 -147.846,147.846 147.84245,147.84244 0 0 0 147.846,147.846 147.84245,147.84244 0 0 0 147.846,-147.846 147.84245,147.84244 0 0 0 -147.846,-147.846 z" /><path
   id="path1242"
   style="fill:none;stroke:#ff1111;stroke-width:7.6;stroke-miterlimit:22.93;stroke-dasharray:none"
   d="m 4696.0019,16103.632 a 146.88544,146.88544 0 0 0 -146.9161,146.865 146.88544,146.88544 0 0 0 146.9161,146.916 146.88544,146.88544 0 0 0 146.8644,-146.916 146.88544,146.88544 0 0 0 -146.8644,-146.865 z m 13705.5701,0 a 146.88544,146.88544 0 0 0 -146.864,146.865 146.88544,146.88544 0 0 0 146.864,146.916 146.88544,146.88544 0 0 0 146.917,-146.916 146.88544,146.88544 0 0 0 -146.917,-146.865 z" /></g>
</svg>

<?xml version="1.0" encoding="UTF-8" standalone="no"?>
<!-- Creator: CorelDRAW 2021.5 -->

<svg
   xml:space="preserve"
   width="400mm"
   height="300mm"
   version="1.1"
   style="clip-rule:evenodd;fill-rule:evenodd;image-rendering:optimizeQuality;shape-rendering:geometricPrecision;text-rendering:geometricPrecision"
   viewBox="0 0 40000 30000"
   id="svg46"
   sodipodi:docname="inner_4cm.svg"
   inkscape:version="1.2 (dc2aedaf03, 2022-05-15)"
   xmlns:inkscape="http://www.inkscape.org/namespaces/inkscape"
   xmlns:sodipodi="http://sodipodi.sourceforge.net/DTD/sodipodi-0.dtd"
   xmlns="http://www.w3.org/2000/svg"
   xmlns:svg="http://www.w3.org/2000/svg"><sodipodi:namedview
   id="namedview352"
   pagecolor="#ffffff"
   bordercolor="#ffffff"
   borderopacity="1"
   inkscape:showpageshadow="0"
   inkscape:pageopacity="1"
   inkscape:pagecheckerboard="1"
   inkscape:deskcolor="#505050"
   inkscape:document-units="mm"
   showgrid="false"
   showguides="false"
   inkscape:zoom="0.88582499"
   inkscape:cx="576.86338"
   inkscape:cy="328.50733"
   inkscape:window-width="1920"
   inkscape:window-height="1017"
   inkscape:window-x="-8"
   inkscape:window-y="-8"
   inkscape:window-maximized="1"
   inkscape:current-layer="Layer_x0020_1"><sodipodi:guide
     position="1680.1077,4619.1746"
     orientation="1,0"
     id="guide1635"
     inkscape:locked="false" /><sodipodi:guide
     position="31888.973,6640.9758"
     orientation="1,0"
     id="guide1637"
     inkscape:locked="false" /><sodipodi:guide
     position="9166.199,14001.392"
     orientation="0,-1"
     id="guide1763"
     inkscape:locked="false" /><sodipodi:guide
     position="29399.421,-5207.4965"
     orientation="0,-1"
     id="guide1765"
     inkscape:locked="false" /></sodipodi:namedview>
 <defs
   id="defs4"><style
     type="text/css"
     id="style2">
   <![CDATA[
    .str0 {stroke:red;stroke-width:7.62;stroke-miterlimit:22.9256}
    .fil0 {fill:none}
   ]]>
  </style></defs>
 <g
   id="Layer_x0020_1"
   inkscape:label="Layer 1"
   inkscape:groupmode="layer"
   style="display:inline">
  <metadata
   id="CorelCorpID_0Corel-Layer" />
  
  
  
  
  
  
  
  
  
  
  
  
  
  
  
  
  
  
  
 <path
   id="rect7"
   style="clip-rule:evenodd;fill:none;fill-rule:evenodd;stroke:#ff0000;stroke-width:7.4804;stroke-miterlimit:22.9256;stroke-dasharray:none;image-rendering:optimizeQuality;shape-rendering:geometricPrecision;text-rendering:geometricPrecision"
   class="fil0 str0"
   d="M 9258.3495 1171.6081 L 9258.3495 1460.7377 L 1155.0199 1460.7377 L 1155.0199 2458.9713 L 1553.3419 2458.9713 L 1553.3419 4458.5909 L 1155.0199 4458.5909 L 1155.0199 5456.7211 L 9258.3495 5456.7211 L 9258.3495 5744.7139 L 16256.734 5744.7139 L 16256.734 5445.1973 L 17255.691 5445.1973 L 17255.691 5744.7139 L 24254.127 5744.7139 L 24254.127 5456.7211 L 32357.405 5456.7211 L 32357.456 4458.5909 L 31959.186 4458.5909 L 31959.186 2458.9713 L 32357.456 2458.9713 L 32357.456 1460.7377 L 24254.178 1460.7377 L 24254.178 1171.6081 L 17255.639 1171.6081 L 17255.639 1463.5799 L 16256.734 1463.5799 L 16256.734 1171.6081 L 9258.3495 1171.6081 z " /><path
   id="rect7-8"
   style="clip-rule:evenodd;display:inline;fill:none;fill-rule:evenodd;stroke:#ff0000;stroke-width:7.4804;stroke-miterlimit:22.9256;stroke-dasharray:none;image-rendering:optimizeQuality;shape-rendering:geometricPrecision;text-rendering:geometricPrecision"
   class="fil0 str0"
   d="M 9258.3495 7340.2754 L 9258.3495 7629.4567 L 1155.0199 7629.4567 L 1155.0199 8627.6387 L 1553.3419 8627.6387 L 1553.3419 10627.258 L 1155.0199 10627.258 L 1155.0199 11625.492 L 9258.3495 11625.492 L 9258.3495 11913.381 L 16256.734 11913.381 L 16256.734 11613.865 L 17255.691 11613.865 L 17255.691 11913.381 L 24254.127 11913.381 L 24254.127 11625.492 L 32357.405 11625.492 L 32357.456 10627.258 L 31959.186 10627.258 L 31959.186 8627.6387 L 32357.456 8627.6387 L 32357.456 7629.4567 L 24254.178 7629.4567 L 24254.178 7340.2754 L 17255.691 7340.2754 L 17255.691 7632.2473 L 16256.734 7632.2473 L 16256.734 7340.2754 L 9258.3495 7340.2754 z " /><path
   id="rect7-0-8-9-1-1-5"
   style="clip-rule:evenodd;fill:none;fill-rule:evenodd;stroke:#ff0000;stroke-width:7.6;stroke-miterlimit:22.9256;stroke-dasharray:none;image-rendering:optimizeQuality;shape-rendering:geometricPrecision;text-rendering:geometricPrecision"
   class="fil0 str0"
   d="m 21648.435,15250.745 h -397.237 V 14252.07 H 15047.721 V 13962.1 H 8049.9051 v 289.97 H 1846.3179 v 998.675 h -397.236 v 1999.619 h 397.236 l -0.037,998.543 H 8049.8681 V 18539 h 6997.8159 v -290.093 h 6203.477 l 0.04,-998.543 h 397.237 z"
   sodipodi:nodetypes="ccccccccccccccccccccc" /><path
   id="path2053"
   style="fill:none;stroke:#ff1111;stroke-width:7.6;stroke-miterlimit:22.93;stroke-dasharray:none"
   d="m 15806.193,8257.0549 a 169.77109,169.77109 0 0 0 -169.757,169.808 169.77109,169.77109 0 0 0 169.757,169.757 169.77109,169.77109 0 0 0 169.757,-169.757 169.77109,169.77109 0 0 0 -169.757,-169.808 z m 950.019,171.72 A 1198.1029,1198.1029 0 0 0 15558.146,9626.842 1198.1029,1198.1029 0 0 0 16756.212,10824.96 1198.1029,1198.1029 0 0 0 17954.33,9626.842 1198.1029,1198.1029 0 0 0 16756.212,8428.7749 Z m 950.02,2228.3401 a 169.77109,169.77109 0 0 0 -169.757,169.757 169.77109,169.77109 0 0 0 169.757,169.808 169.77109,169.77109 0 0 0 169.757,-169.808 169.77109,169.77109 0 0 0 -169.757,-169.757 z" /><path
   id="path3581-4"
   style="clip-rule:evenodd;fill:none;fill-rule:evenodd;stroke:#ff1111;stroke-width:7.6;stroke-miterlimit:22.93;stroke-dasharray:none;image-rendering:optimizeQuality;shape-rendering:geometricPrecision;text-rendering:geometricPrecision"
   d="m 14896.954,16250.522 a 1196.5757,1196.5758 0 0 0 -1196.566,-1196.568 1196.5757,1196.5758 0 0 0 -1196.568,1196.568 1196.5757,1196.5758 0 0 0 1196.568,1196.568 1196.5757,1196.5758 0 0 0 1196.566,-1196.568 z m -4303.148,0 a 1196.5757,1196.5758 0 0 0 -1196.5669,-1196.568 1196.5757,1196.5758 0 0 0 -1196.62,1196.568 1196.5757,1196.5758 0 0 0 1196.62,1196.568 1196.5757,1196.5758 0 0 0 1196.5669,-1196.568 z" /><path
   id="path559"
   style="fill:none;stroke:#ff1111;stroke-width:7.6;stroke-miterlimit:22.93;stroke-dasharray:none"
   d="m 4402.9351,3310.2557 a 147.84245,147.84244 0 0 0 -147.8462,147.8463 147.84245,147.84244 0 0 0 147.8462,147.8462 147.84245,147.84244 0 0 0 147.8463,-147.8462 147.84245,147.84244 0 0 0 -147.8463,-147.8463 z m 24706.6049,0 a 147.84245,147.84244 0 0 0 -147.846,147.8463 147.84245,147.84244 0 0 0 147.846,147.8462 147.84245,147.84244 0 0 0 147.846,-147.8462 147.84245,147.84244 0 0 0 -147.846,-147.8463 z" /><path
   id="path559-8"
   style="clip-rule:evenodd;display:inline;fill:none;fill-rule:evenodd;stroke:#ff1111;stroke-width:7.6;stroke-miterlimit:22.93;stroke-dasharray:none;image-rendering:optimizeQuality;shape-rendering:geometricPrecision;text-rendering:geometricPrecision"
   d="m 4402.9355,9479.021 a 147.84245,147.84244 0 0 0 -147.8462,147.846 147.84245,147.84244 0 0 0 147.8462,147.846 147.84245,147.84244 0 0 0 147.8463,-147.846 147.84245,147.84244 0 0 0 -147.8463,-147.846 z m 24706.6045,0 a 147.84245,147.84244 0 0 0 -147.846,147.846 147.84245,147.84244 0 0 0 147.846,147.846 147.84245,147.84244 0 0 0 147.846,-147.846 147.84245,147.84244 0 0 0 -147.846,-147.846 z" /><path
   id="path1242"
   style="fill:none;stroke:#ff1111;stroke-width:7.6;stroke-miterlimit:22.93;stroke-dasharray:none"
   d="m 4696.0019,16103.632 a 146.88544,146.88544 0 0 0 -146.9161,146.865 146.88544,146.88544 0 0 0 146.9161,146.916 146.88544,146.88544 0 0 0 146.8644,-146.916 146.88544,146.88544 0 0 0 -146.8644,-146.865 z m 13705.5701,0 a 146.88544,146.88544 0 0 0 -146.864,146.865 146.88544,146.88544 0 0 0 146.864,146.916 146.88544,146.88544 0 0 0 146.917,-146.916 146.88544,146.88544 0 0 0 -146.917,-146.865 z" /></g>
</svg>
